X:38
T:Gräset uti dalen grönskar
T:(SmM XI:38)
R:Visa
R:Sånglek
B:Småländsk Musiktradition
N:Sånglek ur Adolf Iwar Arwidssons "Swenska Fornsånger". 1842.
N:"Känd inom Småland, Östergöthland och Dalarne".
O:Småland
M:3/4
L:1/8
K:Am
AB c2 c2|dc B2 G2|cd e2 ee|fd e2 c2|B2 d3 d|de d2 B2|cd e2 e2|
fd e2 eB|cB c2 d2|e2 e2 zd|cA cB A^G|A2 A2 z2]|
W:Gräset uti dalen grönskar
W:var och en sig en maka önskar
W:Kom, kom så gärna
W:låt ingen dig bortlocka
W:min allra käraste docka

